X:1765
T:Bonny Lads
M:2/4
L:1/8
K:A
c>B Ag|faec|dfec|B2B2|cBAg|faec|d>fec|A2A2:|!
cAeA|fAeA|cAeA|B2B2|cAeA|fAeA|d>fec|A2A2:|


